!!! OTL: Literature37
!!! Chapter: 5
!!! Section: I
!!! Page: 352
!!! Mode: 
!!! Encoder: DJB
**kern
*staff1
*I"Piano
=1-
*clefG2
*k[b-e-a-d-]
*A-:
*met(c)
*M4/4
8cc\
4cc\
8dd-\
4.cc\
8b-\
=2
4.a-/
8f/
8e-/
4a-/
8r
=3
4e-/
8.a-/L
16b-/Jk
8cc\L
8cc\
8dd-\
8cc\J
=4
8cc/L
8a-/
8g/
8a-/J
2b-\
=5
4cc\
8.dd-\L
16cc\Jk
4cc\
8b-/L
8a-/J
=6
4b-\
8.a-/L
16f/Jk
8e-/
4a-/
8r
=7
!!linebreak:original
4e-/
8.a-/L
16b-/Jk
4cc\
8.dd-\L
16cc\Jk
=8
8cc\L
8b-\J
8.a-/L
16g/Jk
4.a-/
8r
=9
4b-\
8.b-\L
16cc\Jk
8dd-\L
8ee-\
8dd-\
8cc\J
=10
4cc\
8.cc\L
16dd-\Jk
8ee-\
4cc\
8r
=11
4ee-\
8.dd-\L
16cc\Jk
4cc\
8.b-/L
16a-/Jk
=12
8a-/L
8a-/
8g/
8a-/J
4.b-\
8r
=13
!!linebreak:original
4cc\
8.dd-\L
16cc\Jk
4cc\
8b-/L
8a-/J
=14
4a-/
8.f/L
16e-/Jk
8e-/
4a-/
8r
=15
4e-/
8.a-/L
16b-/Jk
8cc\L
8cc\J
8.dd-\L
16cc\Jk
=16
8cc\L
8b-\J
8.a-/L
16g/Jk
4.a-/
8r
==
*-
